austria/municipalities/70812.svg

<?xml version="1.0" encoding="UTF-8"?>
<!DOCTYPE svg PUBLIC "-//W3C//DTD SVG 1.1//EN" "http://www.w3.org/Graphics/SVG/1.1/DTD/svg11.dtd">
<svg xmlns="http://www.w3.org/2000/svg" version="1.1" width="166px" height="192px" style="shape-rendering:geometricPrecision; text-rendering:geometricPrecision; image-rendering:optimizeQuality; fill-rule:evenodd; clip-rule:evenodd" xmlns:xlink="http://www.w3.org/1999/xlink">
<g><path style="opacity:1" fill="#0a0908" d="M -0.5,-0.5 C 54.8333,-0.5 110.167,-0.5 165.5,-0.5C 165.5,39.1667 165.5,78.8333 165.5,118.5C 157.5,159.167 133.167,183.5 92.5,191.5C 85.5,191.5 78.5,191.5 71.5,191.5C 30.4674,182.802 6.46741,157.802 -0.5,116.5C -0.5,77.5 -0.5,38.5 -0.5,-0.5 Z"/></g>
<g><path style="opacity:1" fill="#fdfdfd" d="M 56.5,30.5 C 58.134,26.8383 57.634,23.505 55,20.5C 54.2419,18.2305 54.4086,16.0639 55.5,14C 53.0185,13.3229 51.1851,14.1563 50,16.5C 49.6987,19.5071 49.8654,22.5071 50.5,25.5C 46.5435,25.0084 42.8768,25.6751 39.5,27.5C 37.7236,25.4622 36.0569,23.2955 34.5,21C 33.1667,20.3333 31.8333,20.3333 30.5,21C 31.6667,21.5 32.5,22.3333 33,23.5C 32.2255,29.1284 34.3921,32.9618 39.5,35C 40.2524,35.6708 40.5858,36.5041 40.5,37.5C 40.0461,39.2589 40.0461,41.2589 40.5,43.5C 40.8134,46.2469 40.48,48.9135 39.5,51.5C 36.4973,52.0851 33.4973,52.7518 30.5,53.5C 25.9817,59.4313 22.3151,64.7646 19.5,69.5C 20.0253,70.1924 20.6919,70.6924 21.5,71C 21.1667,71.3333 20.8333,71.6667 20.5,72C 22.1667,72.6667 23.8333,72.6667 25.5,72C 26.63,69.5719 28.13,67.4053 30,65.5C 31,65.1667 32,64.8333 33,64.5C 34.286,58.555 36.786,58.055 40.5,63C 46.8012,65.5293 52.3012,64.3627 57,59.5C 59.5,60.3333 60,61.8333 58.5,64C 54.5774,66.5604 50.4107,67.0604 46,65.5C 41.4975,68.6325 40.3308,72.7992 42.5,78C 41.7059,82.6087 40.8726,87.1087 40,91.5C 41.9552,90.5467 43.6218,89.2134 45,87.5C 45.6561,91.0016 46.9895,91.0016 49,87.5C 49.8632,85.2511 49.3632,83.4178 47.5,82C 49.4812,81.3946 49.8146,80.3946 48.5,79C 49.448,78.5172 50.448,78.3505 51.5,78.5C 51.1667,76.5 50.8333,74.5 50.5,72.5C 59.5674,73.3828 68.5674,73.5494 77.5,73C 75.7448,73.7199 74.9115,74.8866 75,76.5C 80.2105,82.0417 85.0438,87.8751 89.5,94C 60.8353,94.5 32.1686,94.6666 3.5,94.5C 3.5,64.1667 3.5,33.8333 3.5,3.5C 56.1667,3.5 108.833,3.5 161.5,3.5C 161.5,33.8333 161.5,64.1667 161.5,94.5C 152.494,94.6664 143.494,94.4998 134.5,94C 136,93.1667 137.167,92 138,90.5C 138.667,87.5 138.667,84.5 138,81.5C 134.304,72.6083 130.471,63.775 126.5,55C 126.666,52.836 127.833,51.6694 130,51.5C 135.225,53.9444 140.392,53.9444 145.5,51.5C 145.833,51.1667 146.167,50.8333 146.5,50.5C 144.922,49.7022 143.256,49.2022 141.5,49C 147.411,49.0623 148.911,46.5623 146,41.5C 145.477,43.2226 144.477,44.556 143,45.5C 139.106,43.803 135.273,41.9697 131.5,40C 123.629,39.2105 119.462,42.7105 119,50.5C 122.667,59.1667 126.333,67.8333 130,76.5C 130.667,79.1667 130.667,81.8333 130,84.5C 126.467,86.0747 123.8,85.0747 122,81.5C 116,68.1667 110,54.8333 104,41.5C 102.129,36.9188 99.6288,32.7522 96.5,29C 90.5214,27.6938 84.5214,26.5271 78.5,25.5C 77.4182,27.7837 75.7516,28.9504 73.5,29C 74.5,28 75.5,27 76.5,26C 75.8333,25.6667 75.1667,25.3333 74.5,25C 76.0016,24.4169 77.3349,23.5836 78.5,22.5C 72.9201,20.4165 67.2535,20.0832 61.5,21.5C 59.4805,24.4181 57.8138,27.4181 56.5,30.5 Z"/></g>
<g><path style="opacity:1" fill="#777471" d="M 56.5,30.5 C 54.5976,32.8022 52.2642,33.4688 49.5,32.5C 51.7765,31.5793 54.1099,30.9126 56.5,30.5 Z"/></g>
<g><path style="opacity:1" fill="#afacaa" d="M 43.5,38.5 C 44.3143,36.7274 45.6476,36.2274 47.5,37C 46.4366,38.1882 45.1033,38.6882 43.5,38.5 Z"/></g>
<g><path style="opacity:1" fill="#989492" d="M 43.5,38.5 C 42.2329,40.0389 41.2329,41.7056 40.5,43.5C 40.0461,41.2589 40.0461,39.2589 40.5,37.5C 41.4174,37.5064 41.9174,36.5064 42,34.5C 42.21,36.0581 42.71,37.3915 43.5,38.5 Z"/></g>
<g><path style="opacity:1" fill="#e7e6e5" d="M 49.5,39.5 C 50.2389,39.369 50.9056,39.5357 51.5,40C 51.0385,41.7216 50.8718,43.555 51,45.5C 49.0036,45.9963 47.3369,46.9963 46,48.5C 45.51,47.2068 45.3433,45.8734 45.5,44.5C 46.5,44.5 47.5,44.5 48.5,44.5C 48.67,43.1779 48.3366,42.0113 47.5,41C 48.4158,40.7216 49.0825,40.2216 49.5,39.5 Z"/></g>
<g><path style="opacity:1" fill="#ecebeb" d="M 41.5,54.5 C 44.7842,54.6374 48.1175,54.9707 51.5,55.5C 53.1057,58.7574 52.1057,60.9241 48.5,62C 41.7632,63.4329 39.4299,60.9329 41.5,54.5 Z"/></g>
<g><path style="opacity:1" fill="#d63023" d="M 3.5,95.5 C 56.1667,95.5 108.833,95.5 161.5,95.5C 164.439,142.19 143.772,172.357 99.5,186C 54.6952,192.022 23.8619,174.189 7,132.5C 3.91354,120.372 2.74687,108.038 3.5,95.5 Z"/></g>
<g><path style="opacity:1" fill="#fdfdfd" d="M -0.5,116.5 C 6.46741,157.802 30.4674,182.802 71.5,191.5C 47.5,191.5 23.5,191.5 -0.5,191.5C -0.5,166.5 -0.5,141.5 -0.5,116.5 Z"/></g>
<g><path style="opacity:1" fill="#fdfdfd" d="M 165.5,118.5 C 165.5,142.833 165.5,167.167 165.5,191.5C 141.167,191.5 116.833,191.5 92.5,191.5C 133.167,183.5 157.5,159.167 165.5,118.5 Z"/></g>
</svg>

<svg xmlns="http://www.w3.org/2000/svg" width="166" height="192" style="shape-rendering:geometricPrecision;text-rendering:geometricPrecision;image-rendering:optimizeQuality;fill-rule:evenodd;clip-rule:evenodd"><path style="opacity:1" fill="#0a0908" d="M-.5-.5h166v119c-8 40.667-32.333 65-73 73h-21c-41.033-8.698-65.033-33.698-72-75V-.5z"/><path style="opacity:1" fill="#fdfdfd" d="M56.5 30.5c1.634-3.662 1.134-6.995-1.5-10-.758-2.27-.591-4.436.5-6.5-2.481-.677-4.315.156-5.5 2.5a29.134 29.134 0 0 0 .5 9c-3.956-.492-7.623.175-11 2a67.762 67.762 0 0 1-5-6.5c-1.333-.667-2.667-.667-4 0 1.167.5 2 1.333 2.5 2.5-.775 5.628 1.392 9.462 6.5 11.5.752.67 1.086 1.504 1 2.5-.454 1.759-.454 3.759 0 6a16.869 16.869 0 0 1-1 8 176.684 176.684 0 0 0-9 2c-4.518 5.931-8.185 11.265-11 16a4.452 4.452 0 0 0 2 1.5l-1 1c1.667.667 3.333.667 5 0a23.165 23.165 0 0 1 4.5-6.5l3-1c1.286-5.945 3.786-6.445 7.5-1.5 6.301 2.53 11.801 1.363 16.5-3.5 2.5.833 3 2.333 1.5 4.5-3.923 2.56-8.09 3.06-12.5 1.5-4.502 3.132-5.67 7.3-3.5 12.5A538.035 538.035 0 0 1 40 91.5a14.505 14.505 0 0 0 5-4c.656 3.502 1.99 3.502 4 0 .863-2.249.363-4.082-1.5-5.5 1.981-.605 2.315-1.605 1-3a4.932 4.932 0 0 1 3-.5l-1-6c9.067.883 18.067 1.05 27 .5-1.755.72-2.588 1.887-2.5 3.5A180.851 180.851 0 0 1 89.5 94c-28.665.5-57.331.667-86 .5v-91h158v91c-9.006.166-18.006 0-27-.5 1.5-.833 2.667-2 3.5-3.5.667-3 .667-6 0-9A931.228 931.228 0 0 0 126.5 55c.166-2.164 1.333-3.33 3.5-3.5 5.225 2.444 10.392 2.444 15.5 0l1-1a14.729 14.729 0 0 0-5-1.5c5.911.062 7.411-2.438 4.5-7.5-.523 1.723-1.523 3.056-3 4a181.69 181.69 0 0 1-11.5-5.5c-7.871-.79-12.038 2.71-12.5 10.5l11 26a16.242 16.242 0 0 1 0 8c-3.533 1.575-6.2.575-8-3l-18-40A47.345 47.345 0 0 0 96.5 29a397.317 397.317 0 0 0-18-3.5c-1.082 2.284-2.748 3.45-5 3.5l3-3-2-1a12.417 12.417 0 0 0 4-2.5c-5.58-2.084-11.246-2.417-17-1-2.02 2.918-3.686 5.918-5 9z"/><path style="opacity:1" fill="#777471" d="M56.5 30.5c-1.902 2.302-4.236 2.969-7 2a34.087 34.087 0 0 1 7-2z"/><path style="opacity:1" fill="#afacaa" d="M43.5 38.5c.814-1.773 2.148-2.273 4-1.5-1.063 1.188-2.397 1.688-4 1.5z"/><path style="opacity:1" fill="#989492" d="M43.5 38.5a19.334 19.334 0 0 0-3 5c-.454-2.241-.454-4.241 0-6 .917.006 1.417-.994 1.5-3 .21 1.558.71 2.892 1.5 4z"/><path style="opacity:1" fill="#e7e6e5" d="M49.5 39.5a2.428 2.428 0 0 1 2 .5c-.462 1.722-.628 3.555-.5 5.5-1.996.496-3.663 1.496-5 3a8.434 8.434 0 0 1-.5-4h3c.17-1.322-.163-2.489-1-3.5.916-.278 1.583-.778 2-1.5z"/><path style="opacity:1" fill="#ecebeb" d="M41.5 54.5c3.284.137 6.617.47 10 1 1.606 3.257.606 5.424-3 6.5-6.737 1.433-9.07-1.067-7-7.5z"/><path style="opacity:1" fill="#d63023" d="M3.5 95.5h158c2.939 46.69-17.728 76.857-62 90.5-44.805 6.022-75.638-11.811-92.5-53.5-3.086-12.128-4.253-24.462-3.5-37z"/><path style="opacity:1" fill="#fdfdfd" d="M-.5 116.5c6.967 41.302 30.967 66.302 72 75h-72v-75zM165.5 118.5v73h-73c40.667-8 65-32.333 73-73z"/></svg>
